packages/icons/src/custom-stage-icon.svg

<svg viewBox="0 0 33 33" fill="none" xmlns="http://www.w3.org/2000/svg">
<path fill-rule="evenodd" clip-rule="evenodd" d="M8.98358 6.42822L14.0285 6.42811C14.0285 6.42811 14.0307 6.42811 14.0344 6.42964C14.039 6.43154 14.0482 6.43642 14.0598 6.44722C14.0852 6.47094 14.1066 6.50863 14.1131 6.54945C14.2148 7.18668 14.4515 8.13132 15.0284 8.93446C15.6328 9.77593 16.5975 10.4358 18.026 10.4358C19.4554 10.4358 20.4216 9.77521 21.0279 8.93412C21.607 8.13091 21.8465 7.18617 21.9501 6.54927C21.9568 6.50834 21.9782 6.47082 22.0035 6.44733C22.015 6.43664 22.024 6.43184 22.0285 6.42998C22.0321 6.4285 22.0343 6.42851 22.0343 6.42851L27.3708 6.42879L27.1984 25.5933H8.98352V20.6942C8.98352 19.7575 8.21549 19.1016 7.4206 19.0151C6.89151 18.9575 6.26257 18.809 5.78525 18.4815C5.35395 18.1856 5.00721 17.7228 5.00721 16.8711C5.00721 16.0003 5.37198 15.4828 5.84392 15.1337C6.35245 14.7575 7.00929 14.5665 7.53452 14.4756C8.28696 14.3455 8.98352 13.7009 8.98352 12.8128L8.98358 6.42822ZM14.0285 4.82812L8.98356 4.82823C8.1 4.82824 7.38353 5.5445 7.38353 6.42822L7.38353 12.8129C7.38353 12.8129 7.38354 12.815 7.38199 12.8188C7.38008 12.8234 7.37521 12.8327 7.36444 12.8444C7.34081 12.87 7.30307 12.8919 7.26187 12.899C6.62832 13.0086 5.68967 13.2576 4.89242 13.8474C4.05856 14.4642 3.40723 15.4384 3.40723 16.8711C3.40723 18.281 4.03989 19.2243 4.87998 19.8008C5.67406 20.3457 6.60851 20.5361 7.24738 20.6057C7.29165 20.6105 7.33423 20.6323 7.36159 20.66C7.37402 20.6725 7.37964 20.6827 7.38181 20.6877C7.38353 20.6916 7.38353 20.6942 7.38353 20.6942V25.5933C7.38353 26.4769 8.09987 27.1932 8.98352 27.1932H27.1984C28.0764 27.1932 28.7904 26.4857 28.7983 25.6077L28.9707 6.44319C28.9788 5.5538 28.2598 4.82881 27.3707 4.82879L22.0344 4.82852C21.1409 4.82847 20.4944 5.53305 20.3709 6.2923C20.2845 6.82336 20.0994 7.48614 19.7301 7.99844C19.388 8.47288 18.8819 8.83581 18.026 8.83581C17.1709 8.83581 16.6674 8.4737 16.3279 8.00105C15.9609 7.49008 15.7779 6.82848 15.6931 6.29718C15.5714 5.53544 14.9238 4.82812 14.0285 4.82812ZM18.9688 14.3227C19.0831 13.8959 18.8299 13.4573 18.4031 13.3429C17.9763 13.2286 17.5377 13.4818 17.4233 13.9086L15.7669 20.0905C15.6525 20.5172 15.9058 20.9559 16.3326 21.0703C16.7593 21.1846 17.198 20.9314 17.3124 20.5046L18.9688 14.3227ZM20.3641 13.466C20.6626 13.1403 21.1687 13.1183 21.4944 13.4168L24.6944 16.3501C24.8511 16.4938 24.9442 16.694 24.9531 16.9065C24.9619 17.119 24.8859 17.3262 24.7416 17.4825L21.5416 20.9491C21.242 21.2738 20.7358 21.294 20.4112 20.9943C20.0865 20.6946 20.0663 20.1885 20.366 19.8639L23.0214 16.9871L20.4132 14.5963C20.0875 14.2977 20.0655 13.7917 20.3641 13.466ZM13.2415 13.4168C13.5672 13.1183 14.0732 13.1403 14.3718 13.466C14.6703 13.7917 14.6483 14.2977 14.3226 14.5963L11.7144 16.9871L14.3699 19.8639C14.6696 20.1885 14.6493 20.6946 14.3247 20.9943C14 21.294 13.4939 21.2738 13.1942 20.9491L9.99422 17.4825C9.84998 17.3262 9.77389 17.119 9.78276 16.9065C9.79163 16.694 9.88473 16.4938 10.0415 16.3501L13.2415 13.4168Z" fill="#0278D5"/>
</svg>

<svg xmlns="http://www.w3.org/2000/svg" viewBox="0 0 33 33"><path fill-rule="evenodd" clip-rule="evenodd" d="M8.984 6.428h5.044l.006.002a.09.09 0 0 1 .026.017.184.184 0 0 1 .053.102c.102.638.338 1.582.915 2.385.605.842 1.57 1.502 2.998 1.502 1.43 0 2.396-.66 3.002-1.502.579-.803.819-1.748.922-2.385a.184.184 0 0 1 .053-.102.089.089 0 0 1 .026-.017.014.014 0 0 1 .005-.002h5.337l-.173 19.165H8.984v-4.899c0-.937-.769-1.592-1.563-1.679-.53-.058-1.158-.206-1.636-.534-.431-.296-.778-.758-.778-1.61 0-.87.365-1.388.837-1.737.508-.377 1.165-.568 1.69-.658.753-.13 1.45-.775 1.45-1.663V6.428Zm5.044-1.6H8.985a1.6 1.6 0 0 0-1.6 1.6v6.385l-.002.006a.09.09 0 0 1-.018.025.187.187 0 0 1-.102.055c-.634.11-1.572.359-2.37.948-.833.617-1.485 1.591-1.485 3.024 0 1.41.633 2.353 1.473 2.93.794.545 1.729.735 2.367.805a.196.196 0 0 1 .115.054.097.097 0 0 1 .02.028l.002.006v4.9a1.6 1.6 0 0 0 1.6 1.6h18.214a1.6 1.6 0 0 0 1.6-1.586l.173-19.165a1.6 1.6 0 0 0-1.6-1.614h-5.337c-.893 0-1.54.704-1.663 1.463-.086.531-.272 1.194-.64 1.706-.343.475-.85.838-1.705.838-.855 0-1.359-.362-1.698-.835-.367-.511-.55-1.173-.635-1.704-.122-.762-.77-1.469-1.665-1.469Zm4.94 9.495a.8.8 0 0 0-1.545-.415l-1.656 6.182a.8.8 0 1 0 1.545.415l1.657-6.182Zm1.396-.857a.8.8 0 0 1 1.13-.05l3.2 2.934a.8.8 0 0 1 .048 1.132l-3.2 3.467a.8.8 0 1 1-1.176-1.085l2.655-2.877-2.608-2.39a.8.8 0 0 1-.049-1.131Zm-7.123-.05a.8.8 0 1 1 1.082 1.18l-2.609 2.391 2.656 2.877a.8.8 0 0 1-1.176 1.085l-3.2-3.467a.8.8 0 0 1 .047-1.132l3.2-2.933Z" fill="currentColor"/></svg>
